static/process.svg

<svg width="88" height="88" viewBox="0 0 88 88" fill="none" xmlns="http://www.w3.org/2000/svg">
<g clip-path="url(#clip0)">
<path fill-rule="evenodd" clip-rule="evenodd" d="M64.8401 32.0099C64.9225 32.0099 65.0091 32.012 65.0958 32.0183C65.1359 32.0226 65.1803 32.0289 65.2204 32.0352C65.2775 32.0437 65.4042 32.0627 65.4359 32.0712C66.9635 32.386 68.4594 32.8213 69.8814 33.3664C71.3097 33.9158 72.7126 34.5919 74.0542 35.3779C75.1656 36.0266 75.7255 37.3092 75.4403 38.5727L74.5465 42.4817C75.136 42.9867 75.698 43.5191 76.2262 44.0727L80.0716 42.9803C81.1745 42.6655 82.3662 43.0247 83.1141 43.8952C83.1374 43.9206 83.2451 44.0643 83.2663 44.0896C85.0474 46.7879 86.3109 49.6235 87.0969 52.6281C87.4244 53.8811 86.9067 55.1869 85.808 55.8736L82.4254 57.9992C82.4845 58.7725 82.5035 59.5438 82.4845 60.3108L85.9813 62.261C86.9955 62.8231 87.5828 63.9366 87.4835 65.0924C87.4793 65.1262 87.4582 65.2889 87.4539 65.3248C87.1159 66.9623 86.6806 68.4583 86.1376 69.8782C85.5883 71.3066 84.9101 72.7096 84.1241 74.0513C83.4754 75.1669 82.1845 75.729 80.9231 75.4353L77.0228 74.5436C76.5136 75.1395 75.9833 75.6973 75.4297 76.2234L76.5242 80.0711C76.8348 81.1698 76.4777 82.3615 75.6135 83.1095C75.5797 83.1391 75.4318 83.249 75.398 83.2764C72.7147 85.045 69.8793 86.3085 66.8748 87.0966C65.6324 87.4284 64.3182 86.9065 63.6316 85.8077L61.5039 82.4249C60.7285 82.4841 59.9552 82.4989 59.1903 82.4841L57.2444 85.9789C56.7204 86.9192 55.7295 87.4939 54.6688 87.4939C54.5843 87.4939 54.4998 87.4897 54.4132 87.4833C54.3794 87.4791 54.2167 87.458 54.1829 87.4537C52.537 87.1157 51.0411 86.6783 49.6255 86.1331C48.1993 85.588 46.7964 84.9119 45.4547 84.1258C44.337 83.4751 43.7792 82.1883 44.0687 80.9226L44.9582 77.02C44.3687 76.515 43.8088 75.9825 43.2806 75.4268L39.4373 76.5234C38.3302 76.8341 37.1385 76.4727 36.3948 75.6085C36.3716 75.5832 36.2617 75.4395 36.2406 75.412C34.4573 72.7075 33.1938 69.8698 32.4121 66.8736C32.0867 65.6227 32.6022 64.319 33.6946 63.6302L37.0836 61.5025C37.0223 60.7228 37.0033 59.9537 37.0223 59.1909L33.5256 57.2406C32.5135 56.6744 31.9219 55.5651 32.0212 54.4093C32.0254 54.3734 32.0487 54.2107 32.0529 54.1769C32.3909 52.533 32.8283 51.037 33.3734 49.6213C33.9185 48.1993 34.5925 46.7963 35.3806 45.4504C36.0377 44.3326 37.3329 43.7748 38.5837 44.0664L42.4861 44.9559C42.989 44.3685 43.5214 43.8065 44.0771 43.2783L42.9848 39.4327C42.6721 38.3276 43.0313 37.1338 43.8975 36.39C43.9313 36.3626 44.0771 36.2506 44.1109 36.2273C46.7943 34.4546 49.6339 33.1889 52.6342 32.4071C53.8934 32.086 55.1907 32.6015 55.8753 33.6918L58.0029 37.0789C58.7741 37.0197 59.5474 36.9943 60.3165 37.0197L62.2624 33.5228C62.7294 32.6903 63.5618 32.1451 64.4809 32.031C64.595 32.012 64.7133 32.0099 64.8401 32.0099ZM65.2225 35.8069L62.9871 39.8236C62.6385 40.449 61.9687 40.8061 61.2461 40.7681L60.8172 40.7385C59.7798 40.6772 58.715 40.7068 57.6691 40.823L57.2782 40.8716C56.5725 40.9667 55.8647 40.6307 55.4844 40.0201L53.0398 36.1301C50.8023 36.764 48.6705 37.7149 46.6928 38.9573L47.9479 43.3733C48.1444 44.0643 47.9246 44.8038 47.3837 45.275L47.0647 45.5518C46.2935 46.2385 45.5603 47.0118 44.9032 47.8359L44.6518 48.1571C44.2102 48.7191 43.4961 48.9896 42.7841 48.8184L38.3006 47.7936C37.7301 48.8163 37.2357 49.877 36.8258 50.9462C36.4138 52.0132 36.0737 53.1331 35.8095 54.2804L39.8282 56.5201C40.4494 56.8688 40.8191 57.5428 40.7726 58.2549L40.7409 58.7303C40.6839 59.7508 40.7135 60.8052 40.8276 61.8532L40.8762 62.2166C40.967 62.9329 40.6332 63.6366 40.0247 64.0211L36.1328 66.4658C36.7688 68.7055 37.7196 70.8354 38.9577 72.8152L43.3757 71.5559C44.0623 71.3636 44.8039 71.5791 45.273 72.1179L45.5751 72.4645C46.2597 73.2272 47.0288 73.9562 47.8465 74.6112L48.1528 74.85C48.7212 75.2916 48.9811 76.0206 48.8205 76.72L47.7957 81.2057C48.8205 81.7741 49.879 82.2707 50.9502 82.6806C52.0172 83.0905 53.1349 83.4307 54.2822 83.6948L56.5218 79.676C56.8725 79.0484 57.5592 78.666 58.2755 78.7336L58.6875 78.7632C59.6995 78.8244 60.7517 78.797 61.7934 78.685L62.2307 78.6322C62.9639 78.535 63.6421 78.8773 64.0245 79.4816L66.4691 83.3736C68.7087 82.7313 70.8406 81.7826 72.814 80.5465L71.559 76.1262C71.3625 75.4353 71.5843 74.6936 72.1294 74.2224L72.4337 73.9583C73.188 73.2906 73.9106 72.5279 74.5719 71.7123L74.855 71.3488C75.2966 70.7826 76.0192 70.5184 76.7228 70.6832L81.2062 71.708C81.7767 70.6832 82.2711 69.6247 82.6852 68.5534C83.093 67.4864 83.4332 66.3644 83.6952 65.2192L79.6786 62.9815C79.0511 62.6308 78.6835 61.9504 78.7342 61.2383L78.7659 60.7629C78.8251 59.7382 78.7955 58.6817 78.6793 57.6506L78.6328 57.2829C78.5419 56.5687 78.8736 55.8651 79.4821 55.4806L83.374 53.038C82.7338 50.7919 81.7873 48.6621 80.5491 46.6907L76.1291 47.9458C75.4424 48.1402 74.6944 47.9225 74.2254 47.3774L73.9613 47.071C73.2873 46.3146 72.5266 45.5877 71.7132 44.9327L71.3456 44.6432C70.7835 44.2016 70.5258 43.4748 70.6864 42.7775L71.709 38.298C70.6864 37.7275 69.6278 37.231 68.5566 36.819C67.4875 36.4112 66.3677 36.0689 65.2225 35.8069ZM26.997 1.36821C28.1856 1.56241 29.1032 2.4971 29.2782 3.69427L29.705 6.67974C30.1617 6.84832 30.6098 7.03398 31.0495 7.23458L33.4566 5.43135C34.3017 4.79542 35.4626 4.70152 36.4037 5.20301C36.4485 5.22649 36.5893 5.31398 36.632 5.34172C38.7873 6.88034 40.5884 8.6857 42.0737 10.7578C42.7801 11.7373 42.7673 13.0497 42.0374 14.0186L40.2342 16.4214C40.4391 16.8611 40.6247 17.3092 40.7912 17.7659L43.7702 18.1905C44.8436 18.3463 45.7292 19.1167 46.0301 20.1581C46.0408 20.1944 46.0728 20.3331 46.0814 20.3693C46.3097 21.7266 46.4143 23.0048 46.4143 24.2639C46.4143 25.5208 46.3097 26.7948 46.1006 28.0539C45.9064 29.2489 44.9674 30.1665 43.7681 30.3351L40.7933 30.7598C40.6226 31.2207 40.4369 31.6689 40.2363 32.1042L42.0396 34.5114C42.6776 35.3564 42.7694 36.5152 42.2658 37.4606C42.2444 37.5032 42.1569 37.6441 42.1292 37.6868C40.5884 39.84 38.7873 41.6432 36.7174 43.1306C35.7357 43.8327 34.4276 43.8199 33.4587 43.1007L31.0473 41.2911C30.6034 41.4959 30.1553 41.6816 29.705 41.8481L29.2782 44.8271C29.1246 45.9027 28.3542 46.7883 27.3128 47.087C27.2765 47.0977 27.1378 47.1297 27.1016 47.1382C25.7294 47.3666 24.4554 47.4711 23.207 47.4711C21.9586 47.4711 20.6825 47.3666 19.417 47.1575C18.2284 46.9654 17.3108 46.0286 17.1379 44.8335L16.709 41.8481C16.2523 41.6773 15.8042 41.4917 15.3667 41.2911L12.9617 43.0964C12.1017 43.7366 10.9429 43.8241 10.0018 43.3184C9.9698 43.3013 9.83963 43.2224 9.80762 43.2031C7.63094 41.6453 5.82771 39.8442 4.34031 37.77C3.63609 36.7819 3.65103 35.4738 4.37872 34.5092L6.17982 32.1042C5.97496 31.6625 5.7893 31.2143 5.62285 30.7619L2.64165 30.3351C1.57038 30.1793 0.682636 29.409 0.383876 28.3697C0.373206 28.3334 0.341196 28.1947 0.334794 28.1584C0.106456 26.7948 -0.000244141 25.5187 -0.000244141 24.2639C-0.000244141 23.0091 0.106456 21.733 0.313454 20.4739C0.507648 19.2853 1.44021 18.3655 2.63738 18.1905L5.62285 17.7659C5.79143 17.3071 5.97709 16.8589 6.17982 16.4214L4.37659 14.0186C3.73639 13.1628 3.64676 12.0041 4.15039 11.063C4.16959 11.0246 4.25282 10.888 4.27629 10.8538C5.82558 8.68357 7.62881 6.88034 9.70305 5.39507C10.6804 4.69299 11.9928 4.70579 12.9638 5.43348L15.3646 7.23458C15.8063 7.03185 16.2544 6.84619 16.7111 6.67761L17.1358 3.70068C17.2894 2.62514 18.0619 1.7374 19.1012 1.44077C19.1375 1.4301 19.2762 1.39809 19.3125 1.38955C22.0397 0.930744 24.4895 0.952084 26.997 1.36821ZM20.7316 4.94907L20.245 8.34853C20.1426 9.06982 19.6304 9.66307 18.9347 9.87434L18.604 9.97464C17.8293 10.2222 17.0525 10.5444 16.327 10.92L16.0453 11.0694C15.4072 11.4108 14.6283 11.3489 14.0479 10.9157L11.3057 8.85642C9.98901 9.87434 8.81744 11.0502 7.80166 12.3626L9.85884 15.1026C10.2942 15.6831 10.3539 16.4641 10.0125 17.1043L9.8503 17.4052C9.48325 18.118 9.16315 18.8948 8.9092 19.6886L8.81744 19.9938C8.60618 20.6894 8.01293 21.1973 7.29377 21.2998L3.89431 21.7842C3.78761 22.6143 3.73426 23.4444 3.73426 24.2639C3.73426 25.0834 3.78761 25.9135 3.89431 26.7415L7.29377 27.228C8.00866 27.3283 8.59978 27.8341 8.81318 28.5234L8.92628 28.8904C9.17382 29.6565 9.49179 30.4248 9.8695 31.1525L10.0103 31.4171C10.3539 32.0573 10.2942 32.8383 9.85884 33.4188L7.80166 36.1652C8.81744 37.4776 9.99114 38.6535 11.3057 39.6714L14.0479 37.6121C14.6262 37.181 15.4008 37.117 16.0389 37.4542L16.3675 37.627C17.0824 37.9962 17.8528 38.312 18.6424 38.5638L18.9305 38.6513C19.6283 38.8605 20.1404 39.4537 20.2429 40.175L20.7294 43.5766C22.3961 43.79 24.0265 43.79 25.6846 43.5766L26.169 40.1771C26.2714 39.4537 26.7879 38.8605 27.4857 38.6492L27.8058 38.5532C28.5548 38.3142 29.3252 37.9983 30.0614 37.6227L30.3644 37.4606C31.0004 37.117 31.7814 37.1746 32.364 37.6121L35.1105 39.6714C36.4229 38.6535 37.5966 37.4776 38.6145 36.1652L36.5552 33.4188C36.1177 32.8383 36.0601 32.053 36.4058 31.4128L36.5616 31.1268C36.9201 30.4312 37.2402 29.6651 37.492 28.8797L37.5966 28.534C37.8078 27.8383 38.4011 27.3283 39.1224 27.2259L42.5218 26.7393C42.6243 25.9135 42.6798 25.0834 42.6798 24.2639C42.6798 23.4402 42.6243 22.6122 42.5197 21.7863L39.1224 21.2998C38.4032 21.1973 37.81 20.6894 37.5987 19.9959L37.4856 19.6267C37.2381 18.8627 36.9201 18.0924 36.5466 17.3732L36.3994 17.1022C36.0601 16.462 36.122 15.681 36.5552 15.1026L38.6145 12.3626C37.5966 11.0459 36.4207 9.8722 35.1105 8.85642L32.364 10.9157C31.7814 11.3553 31.0004 11.4108 30.3559 11.063L30.0721 10.9093C29.3721 10.5508 28.606 10.2329 27.8228 9.98104L27.4665 9.87007C26.7772 9.65667 26.2714 9.06342 26.169 8.34853L25.6846 4.9512C24.0329 4.73993 22.3811 4.74207 20.7316 4.94907Z" fill="#1D4283"/>
<path fill-rule="evenodd" clip-rule="evenodd" d="M59.7507 46.9487C61.3214 46.9487 62.8618 47.2364 64.3374 47.8011C67.5286 49.0257 70.0535 51.4208 71.4425 54.545C72.8336 57.6692 72.9245 61.146 71.6999 64.3395C69.8133 69.2551 65.0102 72.5567 59.7485 72.5567C58.1778 72.5567 56.6373 72.2689 55.1618 71.7021C48.5716 69.1729 45.27 61.754 47.7992 55.1638C49.6858 50.2503 54.4868 46.9487 59.7507 46.9487ZM59.7507 50.7349C56.1267 50.7349 52.7083 52.9375 51.3323 56.5225C49.5474 61.1698 51.8689 66.3819 56.5183 68.169C57.5806 68.5757 58.6732 68.7704 59.7485 68.7704C63.3724 68.7704 66.7887 66.5679 68.1669 62.9829C69.9496 58.3356 67.6281 53.1214 62.9787 51.3342C61.9164 50.9275 60.8238 50.7349 59.7507 50.7349ZM23.4734 12.8047C29.3567 12.8047 34.1444 17.5924 34.1444 23.4757C34.1444 29.3591 29.3567 34.1447 23.4734 34.1447C17.59 34.1447 12.8044 29.3591 12.8044 23.4757C12.8044 17.5924 17.59 12.8047 23.4734 12.8047ZM23.4734 16.4778C19.6092 16.4778 16.4776 19.6116 16.4776 23.4757C16.4776 27.3399 19.6092 30.4715 23.4734 30.4715C27.3397 30.4715 30.4713 27.3399 30.4713 23.4757C30.4713 19.6116 27.3376 16.4778 23.4734 16.4778Z" fill="#1D4283"/>
</g>
<defs>
<clipPath id="clip0">
<rect width="88" height="88" fill="white"/>
</clipPath>
</defs>
</svg>

<svg width="88" height="88" fill="none" xmlns="http://www.w3.org/2000/svg"><g clip-path="url(#a)" fill-rule="evenodd" clip-rule="evenodd" fill="#1D4283"><path d="M64.84 32.01c.082 0 .17.002.256.008.04.005.084.01.124.017.058.009.184.028.216.036a28.56 28.56 0 0 1 4.445 1.295 28.57 28.57 0 0 1 4.173 2.012 2.935 2.935 0 0 1 1.386 3.195l-.894 3.909c.59.505 1.152 1.037 1.68 1.59l3.846-1.092a2.951 2.951 0 0 1 3.042.915c.023.026.131.17.152.195 1.781 2.698 3.045 5.533 3.83 8.538a2.937 2.937 0 0 1-1.288 3.246l-3.383 2.125c.06.773.079 1.545.06 2.312l3.496 1.95a2.95 2.95 0 0 1 1.503 2.831l-.03.233a29.129 29.129 0 0 1-1.316 4.553 28.574 28.574 0 0 1-2.014 4.173 2.926 2.926 0 0 1-3.2 1.384l-3.901-.891c-.51.596-1.04 1.153-1.593 1.68l1.094 3.847a2.965 2.965 0 0 1-.91 3.038c-.034.03-.182.14-.216.167a28.53 28.53 0 0 1-8.523 3.82 2.933 2.933 0 0 1-3.243-1.288l-2.128-3.383c-.776.06-1.549.074-2.314.06l-1.946 3.494a2.952 2.952 0 0 1-2.83 1.504l-.231-.03a28.553 28.553 0 0 1-4.557-1.32 28.185 28.185 0 0 1-4.171-2.007 2.932 2.932 0 0 1-1.386-3.203l.89-3.903a22.606 22.606 0 0 1-1.678-1.593l-3.844 1.096a2.967 2.967 0 0 1-3.042-.914c-.023-.026-.133-.17-.154-.197-1.784-2.705-3.047-5.542-3.829-8.538a2.945 2.945 0 0 1 1.283-3.244l3.389-2.128c-.062-.78-.08-1.548-.062-2.311l-3.496-1.95a2.96 2.96 0 0 1-1.505-2.832l.032-.232c.338-1.644.775-3.14 1.32-4.556a28.39 28.39 0 0 1 2.008-4.17 2.94 2.94 0 0 1 3.203-1.385l3.902.89a22.556 22.556 0 0 1 1.591-1.678l-1.092-3.845a2.96 2.96 0 0 1 .913-3.043c.033-.027.18-.14.213-.163a28.32 28.32 0 0 1 8.523-3.82 2.945 2.945 0 0 1 3.241 1.285l2.128 3.387c.771-.06 1.544-.085 2.313-.06l1.946-3.496a2.967 2.967 0 0 1 2.578-1.513zm.382 3.797-2.235 4.017a1.86 1.86 0 0 1-1.74.944l-.43-.03a18.688 18.688 0 0 0-3.148.085l-.39.049a1.837 1.837 0 0 1-1.795-.852l-2.444-3.89a24.449 24.449 0 0 0-6.347 2.827l1.255 4.416a1.849 1.849 0 0 1-.564 1.902l-.32.277a18.623 18.623 0 0 0-2.16 2.284l-.252.321a1.821 1.821 0 0 1-1.868.661l-4.483-1.024a24.606 24.606 0 0 0-2.491 6.487l4.018 2.24c.621.348.991 1.022.945 1.734l-.032.475a19.138 19.138 0 0 0 .087 3.123l.048.364a1.86 1.86 0 0 1-.851 1.804l-3.892 2.445a24.672 24.672 0 0 0 2.825 6.35l4.418-1.26a1.854 1.854 0 0 1 1.897.562l.302.347a19.218 19.218 0 0 0 2.271 2.146l.307.239c.568.442.828 1.17.668 1.87l-1.025 4.486a24.792 24.792 0 0 0 3.154 1.475c1.067.41 2.185.75 3.332 1.014l2.24-4.019a1.83 1.83 0 0 1 1.754-.942l.411.03c1.013.06 2.065.033 3.106-.079l.438-.053a1.821 1.821 0 0 1 1.794.85l2.444 3.892a24.838 24.838 0 0 0 6.345-2.828l-1.255-4.42a1.847 1.847 0 0 1 .57-1.904l.305-.264a18.96 18.96 0 0 0 2.138-2.246l.283-.363a1.833 1.833 0 0 1 1.868-.666l4.483 1.025a25.108 25.108 0 0 0 1.48-3.155 24.97 24.97 0 0 0 1.01-3.334l-4.017-2.237a1.85 1.85 0 0 1-.945-1.744l.032-.475c.06-1.025.03-2.081-.087-3.112l-.046-.368c-.091-.714.24-1.418.85-1.802l3.891-2.443a24.574 24.574 0 0 0-2.825-6.347l-4.42 1.255a1.851 1.851 0 0 1-1.904-.569l-.264-.306a18.956 18.956 0 0 0-2.248-2.138l-.367-.29a1.846 1.846 0 0 1-.66-1.865l1.023-4.48a24.654 24.654 0 0 0-3.152-1.479 25.069 25.069 0 0 0-3.335-1.012zM26.997 1.368a2.749 2.749 0 0 1 2.281 2.326l.427 2.986c.457.168.905.354 1.345.555l2.407-1.804a2.766 2.766 0 0 1 2.947-.228c.044.023.185.111.228.139a23.253 23.253 0 0 1 5.442 5.416c.706.98.693 2.292-.037 3.26l-1.803 2.403c.205.44.39.888.557 1.345l2.98.425a2.767 2.767 0 0 1 2.26 1.967c.01.036.042.175.05.211.229 1.358.333 2.636.333 3.895 0 1.257-.104 2.53-.313 3.79a2.74 2.74 0 0 1-2.333 2.281l-2.975.425c-.17.46-.356.909-.557 1.344l1.804 2.407a2.76 2.76 0 0 1 .09 3.176 23.41 23.41 0 0 1-5.413 5.444c-.981.702-2.29.689-3.258-.03l-2.412-1.81c-.444.205-.892.39-1.342.557l-.427 2.98a2.756 2.756 0 0 1-1.965 2.259c-.037.01-.175.043-.211.051a23.49 23.49 0 0 1-3.895.333 23.33 23.33 0 0 1-3.79-.313 2.742 2.742 0 0 1-2.28-2.325l-.428-2.985c-.457-.17-.905-.356-1.342-.557l-2.405 1.805c-.86.64-2.02.728-2.96.222-.032-.017-.162-.096-.194-.115-2.177-1.558-3.98-3.359-5.468-5.433a2.744 2.744 0 0 1 .039-3.26l1.8-2.406c-.204-.441-.39-.89-.556-1.342l-2.981-.427A2.765 2.765 0 0 1 .384 28.37a3.774 3.774 0 0 1-.05-.212A23.371 23.371 0 0 1 0 24.264c0-1.255.106-2.531.313-3.79a2.749 2.749 0 0 1 2.324-2.284l2.986-.424c.168-.459.354-.907.557-1.345L4.377 14.02a2.769 2.769 0 0 1-.1-3.165 23.25 23.25 0 0 1 5.426-5.459 2.747 2.747 0 0 1 3.26.038l2.402 1.802c.441-.203.89-.389 1.346-.557l.425-2.977A2.756 2.756 0 0 1 19.1 1.44c.037-.01.175-.043.212-.051 2.727-.46 5.177-.438 7.684-.022zM20.732 4.95l-.487 3.4a1.87 1.87 0 0 1-1.31 1.525l-.331.1c-.775.248-1.552.57-2.277.946l-.282.15a1.868 1.868 0 0 1-1.997-.154l-2.742-2.06a19.534 19.534 0 0 0-3.504 3.507l2.057 2.74a1.87 1.87 0 0 1 .153 2.001l-.162.301c-.367.713-.687 1.49-.94 2.284l-.093.305A1.866 1.866 0 0 1 7.294 21.3l-3.4.484a19.416 19.416 0 0 0 0 4.957l3.4.487c.715.1 1.306.606 1.52 1.295l.112.367c.248.767.566 1.535.944 2.262l.14.265c.344.64.284 1.421-.151 2.002l-2.057 2.746a19.603 19.603 0 0 0 3.504 3.506l2.742-2.059a1.87 1.87 0 0 1 1.99-.158l.33.173c.714.37 1.485.685 2.274.937l.288.087c.698.21 1.21.803 1.313 1.524l.486 3.402c1.667.213 3.297.213 4.956 0l.484-3.4a1.874 1.874 0 0 1 1.317-1.528l.32-.096c.749-.239 1.52-.555 2.255-.93l.303-.162a1.859 1.859 0 0 1 2 .151l2.747 2.06a19.744 19.744 0 0 0 3.504-3.507l-2.06-2.746a1.864 1.864 0 0 1-.15-2.006l.157-.286c.358-.696.678-1.462.93-2.247l.105-.346a1.867 1.867 0 0 1 1.525-1.308l3.4-.487c.102-.826.158-1.656.158-2.475 0-.824-.056-1.652-.16-2.478l-3.398-.486a1.866 1.866 0 0 1-1.523-1.304l-.113-.37a14.902 14.902 0 0 0-.94-2.253l-.147-.27a1.876 1.876 0 0 1 .156-2l2.06-2.74a19.604 19.604 0 0 0-3.505-3.507l-2.746 2.06a1.86 1.86 0 0 1-2.008.147l-.284-.154c-.7-.358-1.466-.676-2.25-.928l-.355-.11a1.871 1.871 0 0 1-1.298-1.522l-.484-3.398a19.629 19.629 0 0 0-4.953-.002z"/><path d="M59.75 46.949c1.571 0 3.112.287 4.587.852a12.707 12.707 0 0 1 7.105 6.744 12.72 12.72 0 0 1 .258 9.794c-1.887 4.916-6.69 8.218-11.952 8.218-1.57 0-3.11-.288-4.586-.855-6.59-2.53-9.892-9.948-7.363-16.538 1.887-4.914 6.688-8.215 11.952-8.215zm0 3.786a9.02 9.02 0 0 0-8.418 5.788c-1.785 4.647.537 9.859 5.186 11.646a9.02 9.02 0 0 0 3.23.601 9.022 9.022 0 0 0 8.419-5.787c1.783-4.647-.539-9.862-5.188-11.649a9.015 9.015 0 0 0-3.228-.6zm-36.277-37.93c5.884 0 10.671 4.787 10.671 10.67 0 5.884-4.787 10.67-10.67 10.67-5.884 0-10.67-4.786-10.67-10.67 0-5.883 4.786-10.67 10.67-10.67zm0 3.673a6.997 6.997 0 1 0 .003 13.994 6.997 6.997 0 0 0-.003-13.994z"/></g><defs><clipPath id="a"><path fill="#fff" d="M0 0h88v88H0z"/></clipPath></defs></svg>
